X:1
T:Im Maien
T:David Hermann Engel
T:Julius Rodenberg
T:Im Maien
T:CPDL - Creative Commons Attribution Non Commercial 3.0
T:CPDL - Creative Commons Attribution Non Commercial 3.0
T:CPDL - Creative Commons Attribution Non Commercial 3.0
C:David Hermann Engel
Z:Julius Rodenberg
Z:CPDL - Creative Commons Attribution Non Commercial 3.0
%%score [ ( 1 2 ) 3 4 ]
L:1/8
Q:1/4=80
M:6/8
K:A
V:1 treble nm="Sopran\nAlt"
V:2 treble 
V:3 treble-8 nm="Tenor"
V:4 bass nm="Bass"
V:1
"^Frisch und froh"!mf! E | c2 c cde |!>(! A3!>)! E2!<(! A/c/!<)! |!f! e2 c cBA | B3 z2!<(! E | %5
w: 1.~Nun|bricht aus al- * len|Zwei- gen das *|mai- en- fri- * sche|Grün, die|
w: 2.~Und|wie die Knos- * pen|sprin- gen da *|regt sich’s all- * zu-|mal; die|
w: 3.~Wie|sich die Bäu- * me|wie- gen im *|lie- ben Son- * nen-|schein, wie|
 c2 c!<)!!>(! dcB!>)! | A3!<(! A2 ^A!<)! |!f! B2 e ^def |!>(! e3- e!>)! z!mf! E | %9
w: ers- ten Ler- * chen|stei- gen die|ers- ten Veil- * chen|blüh'n, _ die|
w: mun- tern Vög- * lein|sin- gen die|Quel- le rauscht * ins|Tal, _ die|
w: hoch die Vö- * gel|flie- gen ich|möch- te hin- * ter-|drein, _ wie|
 d2!<(! d dcB!<)! |!>(! ^A3!>)! B2 B |!f!!<(! B2 e!<)! e2!>(! A/c/!>)! | !fermata!B3 z2"^dolce" E | %13
w: ers- ten Ler- * chen|stei- gen die|ers- ten Veil- chen _|blüh'n, und|
w: mun- tern Vög- * lein|sin- gen die|Quel- le rauscht ins _|Tal, und|
w: hoch die Vö- * gel|flie- gen ich|möch- te hin- ter *|drein, möcht‘|
 c2 B A2 G | F2 G A2 A/c/ | (B2 E e2 c/A/) | B2 z z2 B/c/ |!f! B3 !^!f z B/c/ | %18
w: gol- den lie- gen|Tal und Höh´n 1\-3.~im *|Mai- * * * *|en, im *|Mai- en, im *|
w: freu- dig schallt das|Lust- ge- tön * *||||
w: ju- beln ü- ber|Tal und Höh’n * *||||
 (B2 g) e z!pp! G/A/ | G3 !^!^d z G/A/ | (G2 e) c z E/F/ |"^cresc." E2 d B2 f |!f! e2 c A2 F | %23
w: Mai- en, * im *|Mai- en, im *|Mai- * en; o *|Welt, du bist so|wun- der- schön im|
w: |||||
w: |||||
 (E2 c B2 e) | !fermata!A3 z2 |] %25
w: Mai- * * *|en!|
w: ||
w: ||
V:2
 E | E2 E EDC | C3 E2 E | A2 A AGF | G3 x2 E | E2 E ^E2 E | F3 F2 ^^F | G2 G FGA | G3- G x E | %9
w: |||||||||
 B2 B BAG | ^^F3 G2 G | G2 E E2 A | G3 x2 E | C2 D E2 E | FED C2 z | z3 z2 A | G2 x x2 B/c/ | %17
w: ||||||1\-3.~im|Mai'n, * *|
 B3 !^!A x B/c/ | (B2 G) G x G/A/ | G3 !^!F x G/A/ | (G2 E) E x E/F/ | E2 B G2 d | c2 A F2 D | %23
w: ||||||
 (C2 A G2 E) | A3 x2 |] %25
w: ||
V:3
!mf! E | A2 A ABc |!>(! e3!>)! c2!<(! c/e/!<)! |!f! e2 e ^d2 B | B2 B e3- | %5
w: 1.~Nun|bricht aus al- * len|Zwei- gen das *|mai- en- fri- sche|Grün, die ers-|
w: 2.~Und|wie die Knos- * pen|sprin- gen da *|regt sich’s all- zu-|mal; die mun-|
w: 3.~Wie|sich die Bäu- * me|wie- gen im *|lie- ben Son- nen-|schein, wie hoch|
!<(! e2 c!<)!!>(! BAG!>)! | FA!<(!c f2 e!<)! |!f! e2 B fe^d |!>(! e3- e!>)! z!mf! E | %9
w: * ten Ler- * chen|stei- * * gen die|ers- ten Veil- * chen|blüh'n, _ die|
w: * tern Vög- * lein|sin- * * gen die|Quel- le rauscht * ins|Tal, _ die|
w: _ die Vö- * gel|flie- * * gen ich|möch- te hin- * ter-|drein, _ wie|
 G2!<(! G Bcd!<)! |!>(! e3!>)! e2 e |!f!!<(! fdB!<)! cB!>(!A!>)! | !fermata!B3 z2"^dolce" E | %13
w: ers- ten Ler- * chen|stei- gen die|ers- * ten Veil- * chen|blüh'n, und|
w: mun- tern Vög- * lein|sin- gen die|Quel- * le rauscht * ins|Tal, und|
w: hoch die Vö- * gel|flie- gen ich|möch- * te hin- * ter-|drein, möcht‘|
 E2 G A2 A | A2 B c2 z | z2 E ABc |!>(! B2!>)! B/c/ B3- | B6- | (B2 e) B z!pp! G/A/ | G6- | %20
w: gol- den lie- gen|Tal und Höh´n|1\-3.~im Mai- * *|en, im * Mai-||* * en, im *|Mai-|
w: freu- dig schallt das|Lust- ge- tön;||||||
w: ju- beln ü- ber|Tal und Höh’n||||||
 (G2 c) G z E/F/ |"^cresc." E2 B d2 B |!f! c2 c d2 A | (A2 c e^d=d) | !fermata!c3 z2 |] %25
w: * * en; o *|Welt, du bist so|wun- der- schön im|Mai- * * * *|en!|
w: |||||
w: |||||
V:4
!mf! E, | A,,2 A,, A,,2 A,, |!>(! A,3!>)! A,,2!<(! A,!<)! |!f! C2 A, F,2 B, | E,3 z2!<(! E, | %5
w: ||||* die|
w: ||||* die|
w: ||||* wie|
 A,,2 A,,!<)!!>(! C,2 C,!>)! | F,2!<(! A, C2 =C!<)! |!f! B,2 B, B,,2 B,, | %8
w: ers- ten * *|||
w: mun- tern * *|||
w: hoch die * *|||
!>(! E,3- E,!>)! z!mf! E, | E,2!<(! E, G,A,B,!<)! |!>(! C3!>)! D2 E, | %11
w: |||
w: |||
w: |||
!f!!<(! DB,G,!<)! A,E,!>(!C,!>)! | !fermata!E,3 z2"^dolce" E, | A,,2 B,, C,2 C, | D,C,B,, A,,2 z | %15
w: ||||
w: ||||
w: ||||
 z2 E, C,E,A, | E,2 z z2 B,/C/ | B,A,F, !^!^D, z B,/C/ | B,G,E, E, z!pp! G,/A,/ | %19
w: |* im *|Mai- * * en, im *|Mai- * * en, im *|
w: ||||
w: ||||
 G,F,^D, !^!^B,, z G,/A,/ | G,E,C, C, z E,/F,/ |"^cresc." E,2 G, B,2 G, |!f! A,2 A, D,2 D, | E,6 | %24
w: Mai- * * en, im *|Mai- * * en, * *||||
w: |||||
w: |||||
 !fermata!A,3 z2 |] %25
w: |
w: |
w: |

